X:7489
T:I'll buy boots for Maggie
R:Polka
O:Ireland
M:2/4
L:1/8
K:Am
A>B cd|eg ga|eg/e/ dB|AB G2|\
A>B cd|eg ga|eg/e/ dB|BA A2:|*
|:ea ab|c'b ag|ea ab|c'b a2|\
ea ab|c'b ag|eg/e/ dB|BA A2:|
